assets/meizu/mono.svg

<svg viewBox="0 0 24 24" xmlns="http://www.w3.org/2000/svg"><path d="m20.045 18.818h3.546a.41.41 0 0 0 .409-.408v-3.545a.41.41 0 0 0 -.41-.41h-3.545a.41.41 0 0 0 -.409.41v3.545c0 .226.184.41.41.41zm-6.245-6.708a.095.095 0 0 1 -.163-.068v-6.451a.41.41 0 0 0 -.409-.41h-2.638a.545.545 0 0 0 -.385.16l-10.045 10.046a.545.545 0 0 0 -.16.385v2.638c0 .226.183.41.41.41h2.637a.547.547 0 0 0 .385-.16l6.769-6.769a.096.096 0 0 1 .163.068v6.451c0 .226.183.41.409.41h2.638a.547.547 0 0 0 .385-.16l10.044-10.047a.545.545 0 0 0 .16-.383v-2.64a.41.41 0 0 0 -.41-.41h-2.637a.546.546 0 0 0 -.386.16z"/></svg>

<svg xmlns="http://www.w3.org/2000/svg" viewBox="0 0 24 24"><path d="M20.045 18.818h3.546A.41.41 0 0 0 24 18.41v-3.545a.41.41 0 0 0-.41-.41h-3.545a.41.41 0 0 0-.409.41v3.545c0 .226.184.41.41.41zM13.8 12.11a.095.095 0 0 1-.163-.068V5.591a.41.41 0 0 0-.409-.41H10.59a.55.55 0 0 0-.385.16L.16 15.387a.55.55 0 0 0-.16.385v2.638c0 .226.183.41.41.41h2.637a.55.55 0 0 0 .385-.16l6.769-6.769a.096.096 0 0 1 .163.068v6.451c0 .226.183.41.409.41h2.638a.55.55 0 0 0 .385-.16L23.84 8.613A.55.55 0 0 0 24 8.23V5.59a.41.41 0 0 0-.41-.41h-2.637a.55.55 0 0 0-.386.16z"/></svg>
